X:1
T:Ezana, 87.87 D
T:Ezana, 87.87 D
T:Charles A. Finch, 1914
T:Public Domain Courtesy of the Cyber Hymnal™
C:Charles A. Finch, 1914
Z:Public Domain
Z:Courtesy of the Cyber Hymnal™
%%score ( 1 2 ) ( 3 4 )
L:1/8
Q:1/4=90
M:6/8
K:Eb
V:1 treble 
V:2 treble 
V:3 bass 
V:4 bass 
V:1
 [EB][EB][EB] [DB][E=A][F_A] | [EG]3 E3 | [EA][EA][EA] [EA]E[EF] | [EG]3- [EG]2 z | %4
 [DF][DF][DF] [Dc][EB][FA] | [EA]3 [EG]3 | C[=B,D][CE] [EG][EF]E | [DB]3- [DB]2 z | %8
 [EB][EB][EB] [DB][E=A][F_A] | [EG]3 E3 | EGB [B_d][Bd][Bd] | [Ac]3- [Ac]2 z | %12
 [^Fc][F=B][Fc] [Gd][Ac][Ad] | [Ge]3 [Ac]3 | [GB]<[EB][Ec] [EG]<[EG][DF] | E3- E2 z x |] %16
V:2
 x6 | x3 E3 | x4 E x | x6 | x6 | x6 | C x3 E x | x6 | x6 | x3 E3 | EGB x3 | x6 | x6 | x6 | x6 | %15
 E3- E2 x2 |] %16
V:3
 [E,G,][E,G,][E,G,] [B,,F,][C,F,][D,B,] | [E,B,]3 [E,G,]3 | %2
 [A,,C][A,,C][A,,C] [A,,C][A,,C][A,,_C] | [E,B,]3- [E,B,]2 z | %4
 [B,,B,][B,,B,][B,,B,] [B,,B,][C,B,][D,B,] | [E,C]3 [E,B,]3 | %6
 [E,G,][D,G,][C,G,] [=A,,C][A,,C][A,,C] | [B,,B,]3- [B,,B,]2 z | %8
 [E,G,][E,G,][E,G,] [B,,F,][C,F,][D,B,] | [E,B,]3 [E,G,]3 | E,G,B, [G,E][G,E][G,E] | %11
 [A,E]3- [A,E]2 z | [=A,E][A,E][A,E] [B,D][B,F][=B,F] | [CE]3 [A,E]3 | %14
 [B,F]<[G,B,][A,E] B,<B,[B,,A,] | [E,G,]3- [E,G,]3 z |] %16
V:4
 x6 | x6 | x6 | x6 | x6 | x6 | x6 | x6 | x6 | x6 | E,G,B, x3 | x6 | x6 | x6 | x3 B,<B, x | x7 |] %16

